X: 33759
T: Rattlin' Roarin' Willie
R: slip jig
M: 9/8
K: Amixolydian
f|ecA ABA cef|gfg B2c d2f|ecA ABA ceg|a^ga c2d ef=g|a^ga ecA ecd|gfg B2c d2f|ecA f2e fae|cAc BGB A2:|
|:f|ecA acA ecA|BGB gBG d2f|ecA acA ecA|agf ecA e2f/g/|agf ecA cef|gfg B2c d2f|ecA f2e fae|cAc BGB A2:|

